icons/14x14_ticket_save_outline.svg

<svg xmlns="http://www.w3.org/2000/svg" width="14" height="14" viewBox="0 0 14 14">
  <path fill-rule="evenodd" d="M6,10.6584439 L6,12.9987182 C5.68221462,12.9839677 5.36782449,12.8546955 5.12413605,12.6110071 L1.38913605,8.87600708 C0.873136046,8.36000708 0.870136046,7.52700708 1.38113605,7.01600708 L7.10513605,1.29300708 C7.29313605,1.10400708 7.55013605,0.999007078 7.81613605,1.00000708 L11.987136,1.01800708 C12.536136,1.02000708 12.980136,1.46400708 12.983136,2.01300708 L12.9993861,5 L10.9984614,5 L10.9871981,3.01371038 L8.22473007,3.00178872 L3.28360582,7.94204973 L6,10.6584439 Z M9.00842712,9.79421368 L9.00842712,6 L11.0084271,6 L11.0084271,9.79421368 L12.1297475,8.67289333 L13.543961,10.0871069 L10.0084271,13.6226408 L6.47289322,10.0871069 L7.88710678,8.67289333 L9.00842712,9.79421368 Z"/>
</svg>

<svg width="14" height="14" fill="none" xmlns="http://www.w3.org/2000/svg"><path fill-rule="evenodd" clip-rule="evenodd" d="M6 10.658v2.34a1.322 1.322 0 0 1-.876-.387L1.39 8.876a1.315 1.315 0 0 1-.008-1.86l5.724-5.723A.998.998 0 0 1 7.816 1l4.171.018a1 1 0 0 1 .996.995L13 5h-2l-.012-1.986-2.762-.012-4.941 4.94L6 10.658Zm3.008-.864V6h2v3.794l1.122-1.121 1.414 1.414-3.536 3.536-3.535-3.536 1.414-1.414 1.121 1.121Z" fill="#000"/></svg>
